brandFactory_export/2.Regular/Garaje_2Regular.svg

<?xml version="1.0" encoding="UTF-8"?>
<svg width="24px" height="24px" viewBox="0 0 24 24" version="1.1" xmlns="http://www.w3.org/2000/svg" xmlns:xlink="http://www.w3.org/1999/xlink">
    <title>2.Regular/Garaje_2Regular</title>
    <g id="Symbols" stroke="none" stroke-width="1" fill="none" fill-rule="evenodd">
        <g id="2.Regular/Garaje_2Regular" fill="#5CB615" fill-rule="nonzero">
            <path d="M23.0857143,10.1344538 L13.3613445,0.605042017 C12.5411765,-0.198319328 11.1495798,-0.198319328 10.3294118,0.605042017 L0.601680672,10.1378151 C0.0504201681,10.6789916 -0.114285714,11.4453782 0.168067227,12.1411765 C0.477310924,12.897479 1.24369748,13.3882353 2.11764706,13.3882353 L2.61512605,13.3882353 L2.61512605,21.7008403 C2.61512605,22.7630252 3.54957983,23.6268908 4.69915966,23.6268908 L6.4302521,23.6268908 C6.43697479,23.6268908 6.44033613,23.6235294 6.44705882,23.6235294 C6.45042017,23.6235294 6.45378151,23.6268908 6.45714286,23.6268908 L17.1630252,23.6268908 C17.1731092,23.6268908 17.1798319,23.6235294 17.1865546,23.6235294 C17.1966387,23.6235294 17.2067227,23.6268908 17.2168067,23.6268908 L18.8436975,23.6268908 C19.9932773,23.6268908 20.9277311,22.7630252 20.9277311,21.7008403 L20.9277311,13.3882353 L21.5630252,13.3882353 C22.4369748,13.3882353 23.2033613,12.9008403 23.512605,12.1411765 C23.805042,11.4420168 23.6369748,10.6756303 23.0857143,10.1344538 Z M12.3495798,1.63361345 L22.0739496,11.1663866 C22.2084034,11.297479 22.2420168,11.4420168 22.1815126,11.589916 C22.1176471,11.7512605 21.9159664,11.9361345 21.5697479,11.9361345 L20.2117647,11.9361345 C19.8117647,11.9361345 19.4890756,12.2588235 19.4890756,12.6588235 L19.4890756,21.6941176 C19.4890756,21.9563025 19.1966387,22.1747899 18.8504202,22.1747899 L17.9462185,22.1747899 L17.9462185,12.7596639 C17.9462185,12.3596639 17.6235294,12.0369748 17.2235294,12.0369748 L6.43361345,12.0369748 C6.03361345,12.0369748 5.71092437,12.3596639 5.71092437,12.7596639 L5.71092437,22.1747899 L4.70252101,22.1747899 C4.35630252,22.1747899 4.06386555,21.9563025 4.06386555,21.6941176 L4.06386555,12.6588235 C4.06386555,12.2588235 3.74117647,11.9361345 3.34117647,11.9361345 L2.1210084,11.9361345 C1.77142857,11.9361345 1.57310924,11.7478992 1.5092437,11.589916 C1.44537815,11.4386555 1.48235294,11.297479 1.61680672,11.1663866 L11.3411765,1.63361345 C11.6,1.37815126 12.0907563,1.37815126 12.3495798,1.63361345 Z M16.5008403,20.2453782 L16.5008403,22.1747899 L7.15630252,22.1747899 L7.15630252,20.2453782 L16.5008403,20.2453782 Z M16.5008403,16.8739496 L16.5008403,18.8033613 L7.15630252,18.8033613 L7.15630252,16.8739496 L16.5008403,16.8739496 Z M16.5008403,13.4857143 L16.5008403,15.4285714 L7.15630252,15.4285714 L7.15630252,13.4857143 L16.5008403,13.4857143 Z" id="Garaje_2Regular"></path>
        </g>
    </g>
</svg>

<svg width="24" height="24" viewBox="0 0 24 24" xmlns="http://www.w3.org/2000/svg"><path d="M23.086 10.134L13.36.605c-.82-.803-2.211-.803-3.032 0L.602 10.138c-.552.541-.716 1.307-.434 2.003.31.756 1.076 1.247 1.95 1.247h.497v8.313c0 1.062.935 1.926 2.084 1.926H6.43c.007 0 .01-.003.017-.003l.01.003h10.706c.01 0 .017-.003.024-.003l.03.003h1.627c1.15 0 2.084-.864 2.084-1.926v-8.313h.635c.874 0 1.64-.487 1.95-1.247.292-.699.124-1.465-.427-2.007zm-10.736-8.5l9.724 9.532c.134.131.168.276.108.424-.064.161-.266.346-.612.346h-1.358c-.4 0-.723.323-.723.723v9.035c0 .262-.292.48-.639.48h-.904V12.76c0-.4-.322-.723-.722-.723H6.434c-.4 0-.723.323-.723.723v9.415H4.703c-.347 0-.64-.219-.64-.48v-9.036c0-.4-.322-.723-.722-.723h-1.22c-.35 0-.548-.188-.612-.346-.064-.151-.027-.293.108-.424l9.724-9.532c.259-.256.75-.256 1.009 0zm4.15 18.611v1.93H7.157v-1.93h9.345zm0-3.371v1.93H7.157v-1.93h9.345zm0-3.388v1.943H7.157v-1.943h9.345z" fill="#5CB615" fill-rule="nonzero"/></svg>
